assets/Tulip/Flat/tulip_flat.svg

<svg width="32" height="32" viewBox="0 0 32 32" fill="none" xmlns="http://www.w3.org/2000/svg">
<path d="M16.83 20.16H14.83V28.4125C14.0816 26.5555 12.2699 25.23 10.15 25.23H8.07999C7.91999 25.23 7.79999 25.36 7.79999 25.51V25.93C7.79999 28.33 9.74999 30.28 12.06 30.3L14.94 30.31C14.974 30.31 15.0069 30.3029 15.037 30.29H16.83V30.2834C16.866 30.3004 16.9065 30.31 16.95 30.31H19.02C21.72 30.31 23.92 28.16 24.06 25.5C24.07 25.35 23.95 25.23 23.81 25.23L20.93 25.24C19.0111 25.2567 17.3407 26.605 16.83 28.4368V20.16Z" fill="#86D72F"/>
<path d="M20.83 19.26H10.81V13.24C10.81 9.53 12.29 5.98 14.91 3.37L14.92 3.36C15.4 2.88 16.18 2.88 16.66 3.36C19.33 5.98 20.83 9.57 20.83 13.31V19.26Z" fill="#F70A8D"/>
<path d="M24.64 4.10996C24.64 3.52996 24.27 3.02996 23.81 3.01996C20.54 2.99996 17.73 7.78996 16.49 12.48C16.27 13.31 15.37 13.29 15.15 12.46C13.92 7.78996 11.12 3.01996 7.86 3.01996C7.39 3.01996 7.01 3.50996 7.01 4.10996V10.32L7 10.31C7 10.7 7.02 11.09 7.05 11.47C7.13 12.57 7.34 14.55 7.67 15.52C8.99 19.61 12.14 21.55 15.83 21.55C19.24 21.55 22.2 20.01 23.66 16.4C24.29 14.94 24.65 12.34 24.65 10.56L24.64 4.10996Z" fill="#FF6DC6"/>
</svg>

<svg xmlns="http://www.w3.org/2000/svg" width="32" height="32" fill="none"><path fill="#86D72F" d="M16.83 20.16h-2v8.253c-.748-1.858-2.56-3.183-4.68-3.183H8.08a.28.28 0 0 0-.28.28v.42c0 2.4 1.95 4.35 4.26 4.37l2.88.01a.246.246 0 0 0 .097-.02h1.793v-.007a.28.28 0 0 0 .12.027h2.07c2.7 0 4.9-2.15 5.04-4.81a.253.253 0 0 0-.25-.27l-2.88.01c-1.919.017-3.59 1.365-4.1 3.197V20.16Z"/><path fill="#F70A8D" d="M20.83 19.26H10.81v-6.02c0-3.71 1.48-7.26 4.1-9.87l.01-.01c.48-.48 1.26-.48 1.74 0 2.67 2.62 4.17 6.21 4.17 9.95v5.95Z"/><path fill="#FF6DC6" d="M24.64 4.11c0-.58-.37-1.08-.83-1.09-3.27-.02-6.08 4.77-7.32 9.46-.22.83-1.12.81-1.34-.02-1.23-4.67-4.03-9.44-7.29-9.44-.47 0-.85.49-.85 1.09v6.21L7 10.31c0 .39.02.78.05 1.16.08 1.1.29 3.08.62 4.05 1.32 4.09 4.47 6.03 8.16 6.03 3.41 0 6.37-1.54 7.83-5.15.63-1.46.99-4.06.99-5.84l-.01-6.45Z"/></svg>
